assets/images/Chat.svg

<?xml version="1.0" encoding="UTF-8"?>
<svg width="25px" height="24px" viewBox="0 0 25 24" version="1.1" xmlns="http://www.w3.org/2000/svg" xmlns:xlink="http://www.w3.org/1999/xlink">
<!-- Generator: Sketch 50.2 (55047) - http://www.bohemiancoding.com/sketch -->
<title>3H</title>
<desc>Created with Sketch.</desc>
<defs></defs>
<g id="Page-1" stroke="none" stroke-width="1" fill="none" fill-rule="evenodd">
    <g id="Группы-Открыт-поиск-Copy" transform="translate(-25.000000, -762.000000)" fill="#0B1A2B">
        <path d="M43.9082278,772.335443 C44.4329114,772.335443 44.8575949,772.759494 44.8575949,773.28481 C44.8575949,773.810127 44.4329114,774.234177 43.9082278,774.234177 L30.9721519,774.234177 C30.4474684,774.234177 30.0227848,773.810127 30.0227848,773.28481 C30.0227848,772.759494 30.4474684,772.335443 30.9721519,772.335443 L43.9082278,772.335443 Z M30.9721519,767.506329 L43.9082278,767.506329 C44.4329114,767.506329 44.8575949,767.93038 44.8575949,768.455696 C44.8575949,768.974684 44.4329114,769.405063 43.9082278,769.405063 L30.9721519,769.405063 C30.4474684,769.405063 30.0227848,768.974684 30.0227848,768.455696 C30.0227848,767.93038 30.4474684,767.506329 30.9721519,767.506329 Z M48.1012658,777.620253 C48.1012658,777.683544 47.978481,777.803797 47.7848101,777.803797 L36.5506329,777.803797 C36.535443,777.803797 36.521519,777.803797 36.5063291,777.803797 C36.4727848,777.810127 36.4398734,777.810127 36.4063291,777.816456 C36.3772152,777.822785 36.3481013,777.829114 36.3189873,777.835443 C36.2886076,777.841772 36.2594937,777.85443 36.2297468,777.860759 C36.2,777.873418 36.171519,777.886076 36.143038,777.898734 C36.1164557,777.911392 36.0911392,777.924051 36.0658228,777.936709 C36.0360759,777.955696 36.0082278,777.974684 35.9810127,778 C35.9689873,778.006329 35.9563291,778.012658 35.9449367,778.018987 L30.5379747,782.506329 L30.5379747,778.753165 C30.5379747,778.227848 30.1132911,777.803797 29.5886076,777.803797 L27.2151899,777.803797 C27.0221519,777.803797 26.8987342,777.683544 26.8987342,777.620253 L26.8987342,764.075949 C26.8987342,764.012658 27.0221519,763.898734 27.2151899,763.898734 L47.7848101,763.898734 C47.978481,763.898734 48.1012658,764.012658 48.1012658,764.075949 L48.1012658,777.620253 Z M27.2151899,762 C25.9943038,762 25,762.93038 25,764.075949 L25,777.620253 C25,778.772152 25.9943038,779.702532 27.2151899,779.702532 L28.6392405,779.702532 L28.6392405,784.525316 C28.6392405,784.892405 28.8518987,785.227848 29.185443,785.386076 C29.3139241,785.449367 29.4518987,785.474684 29.5886076,785.474684 C29.8063291,785.474684 30.021519,785.398734 30.1949367,785.259494 L36.893038,779.702532 L47.7848101,779.702532 C49.0063291,779.702532 50,778.772152 50,777.620253 L50,764.075949 C50,762.93038 49.0063291,762 47.7848101,762 L27.2151899,762 Z" id="3H"></path>
    </g>
</g>
</svg>

<?xml version="1.0" encoding="utf-8"?>
		<!-- Generator: Adobe Illustrator 21.1.0, SVG Export Plug-In . SVG Version: 6.00 Build 0)  -->
<svg version="1.1" id="Слой_1" xmlns="http://www.w3.org/2000/svg" xmlns:xlink="http://www.w3.org/1999/xlink" x="0px" y="0px"
	 viewBox="0 0 25 24" style="enable-background:new 0 0 25 24;" xml:space="preserve">
<title>3H</title>
<desc>Created with Sketch.</desc>
<g id="Page-1">
	<g id="Группы-Открыт-поиск-Copy" transform="translate(-25.000000, -762.000000)">
		<path id="_x33_H" d="M43.9,772.3c0.5,0,0.9,0.4,0.9,0.9c0,0.5-0.4,0.9-0.9,0.9H31c-0.5,0-0.9-0.4-0.9-0.9c0-0.5,0.4-0.9,0.9-0.9
			H43.9z M31,767.5h12.9c0.5,0,0.9,0.4,0.9,0.9c0,0.5-0.4,0.9-0.9,0.9H31c-0.5,0-0.9-0.4-0.9-0.9C30,767.9,30.4,767.5,31,767.5z
			 M48.1,777.6c0,0.1-0.1,0.2-0.3,0.2H36.6c0,0,0,0,0,0c0,0-0.1,0-0.1,0c0,0-0.1,0-0.1,0c0,0-0.1,0-0.1,0c0,0-0.1,0-0.1,0
			c0,0-0.1,0-0.1,0c0,0-0.1,0-0.1,0.1c0,0,0,0,0,0l-5.4,4.5v-3.8c0-0.5-0.4-0.9-0.9-0.9h-2.4c-0.2,0-0.3-0.1-0.3-0.2v-13.5
			c0-0.1,0.1-0.2,0.3-0.2h20.6c0.2,0,0.3,0.1,0.3,0.2V777.6z M27.2,762c-1.2,0-2.2,0.9-2.2,2.1v13.5c0,1.2,1,2.1,2.2,2.1h1.4v4.8
			c0,0.4,0.2,0.7,0.5,0.9c0.1,0.1,0.3,0.1,0.4,0.1c0.2,0,0.4-0.1,0.6-0.2l6.7-5.6h10.9c1.2,0,2.2-0.9,2.2-2.1v-13.5
			c0-1.1-1-2.1-2.2-2.1H27.2z"/>
	</g>
</g>
</svg>
